svg/awning.svg

<svg xmlns="http://www.w3.org/2000/svg" viewBox="0 0 24 24"><path d="M5.06 7c-.43 0-.84.14-1.22.42s-.6.64-.7 1.08l-1.03 4.41c-.25 1.09-.05 2.01.58 2.82.12.12.24.24.35.34.59.57 1.24.93 2.18.93s1.69-.41 2.25-.95c.63.62 1.39.95 2.33.95.84 0 1.64-.37 2.2-.93.68.63 1.45.93 2.3.93.87 0 1.61-.33 2.24-.95.57.57 1.32.95 2.27.95s1.62-.35 2.19-.94c.09-.09.18-.19.28-.29.66-.82.86-1.77.61-2.86L20.86 8.5c-.13-.44-.36-.8-.73-1.08A1.88 1.88 0 0 0 18.94 7z"/></svg>

<svg xmlns="http://www.w3.org/2000/svg" id="mdi-awning" viewBox="0 0 24 24"><path d="M5.06 7C4.63 7 4.22 7.14 3.84 7.42C3.46 7.7 3.24 8.06 3.14 8.5L2.11 12.91C1.86 14 2.06 14.92 2.69 15.73C2.81 15.85 2.93 15.97 3.04 16.07C3.63 16.64 4.28 17 5.22 17C6.16 17 6.91 16.59 7.47 16.05C8.1 16.67 8.86 17 9.8 17C10.64 17 11.44 16.63 12 16.07C12.68 16.7 13.45 17 14.3 17C15.17 17 15.91 16.67 16.54 16.05C17.11 16.62 17.86 17 18.81 17C19.76 17 20.43 16.65 21 16.06C21.09 15.97 21.18 15.87 21.28 15.77C21.94 14.95 22.14 14 21.89 12.91L20.86 8.5C20.73 8.06 20.5 7.7 20.13 7.42C19.77 7.14 19.38 7 18.94 7H5.06Z" /></svg>
